X:160
T:sing care away
L:1/8
M:6/8
Z:Andy Hornby
%%TUNEURL: http://www.leeds.ac.uk/music/Info/RRTuneBk/gettune/00000da3.html
%%ID:00000da3
K:D
F|B3/2c/2d c2B|_B2=B c2F|B2c d2e|f3-f2:|
|:f|c3/2d/2e e2e|a2e e2c|d2c d e2|f3-f2f|
e2d c3/2d/2e|d2c B3/2c/2d|c2B _B3/2^G/2B|=B3-B2:|
